jsapp/svg-icons/qt-ranking.svg

<svg height="642" viewBox="0 0 642 642" width="642" xmlns="http://www.w3.org/2000/svg"><path d="m369 481h-64c-8.836556 0-16 7.163444-16 16v32c0 8.836556 7.163444 16 16 16h64c8.836556 0 16-7.163444 16-16v-32c0-8.836556-7.163444-16-16-16zm-128-64h-48v-304c0-8.836556-7.163444-16-16-16h-32c-8.836556 0-16 7.163444-16 16v304h-48c-14.19 0-21.37 17.24-11.29 27.31l80 96c6.247539 6.243446 16.372461 6.243446 22.62 0l80-96c10.02-10.05 2.89-27.31-11.33-27.31zm256-192h-192c-8.836556 0-16 7.163444-16 16v32c0 8.836556 7.163444 16 16 16h192c8.836556 0 16-7.163444 16-16v-32c0-8.836556-7.163444-16-16-16zm-64 128h-128c-8.836556 0-16 7.163444-16 16v32c0 8.836556 7.163444 16 16 16h128c8.836556 0 16-7.163444 16-16v-32c0-8.836556-7.163444-16-16-16zm128-256h-256c-8.836556 0-16 7.163444-16 16v32c0 8.836556 7.163444 16 16 16h256c8.836556 0 16-7.163444 16-16v-32c0-8.836556-7.163444-16-16-16z"/></svg>

<svg id="Layer_1" data-name="Layer 1" xmlns="http://www.w3.org/2000/svg" viewBox="0 0 642 642"><path d="M369,481H305a16,16,0,0,0-16,16v32a16,16,0,0,0,16,16h64a16,16,0,0,0,16-16V497A16,16,0,0,0,369,481ZM241,417H193V113a16,16,0,0,0-16-16H145a16,16,0,0,0-16,16V417H81c-14.19,0-21.37,17.24-11.29,27.31l80,96a16,16,0,0,0,22.62,0l80-96C262.35,434.26,255.22,417,241,417ZM497,225H305a16,16,0,0,0-16,16v32a16,16,0,0,0,16,16H497a16,16,0,0,0,16-16V241A16,16,0,0,0,497,225ZM433,353H305a16,16,0,0,0-16,16v32a16,16,0,0,0,16,16H433a16,16,0,0,0,16-16V369A16,16,0,0,0,433,353ZM561,97H305a16,16,0,0,0-16,16v32a16,16,0,0,0,16,16H561a16,16,0,0,0,16-16V113A16,16,0,0,0,561,97Z"/></svg>
